X:1
T:Habakkuk, 88.6 D
T:Edward Hodges (1796-1867)
T:Habakkuk, 88.6 D
T:Public Domain
C:Edward Hodges (1796-1867)
Z:Public Domain
%%score ( 1 2 ) ( 3 4 )
L:1/8
M:3/4
K:C
V:1 treble 
V:2 treble 
V:3 bass 
V:4 bass 
V:1
 [EG]2 | (G2 c2) (GF) | (c2 B2) [FA]2 | (G3 A) [DF]2 | [CE]4 [EG]2 | (A3 B) ([Gc][Fd]) | %6
 (e2 c2) [Ec]2 | (c3 B) [^FA]2 | [EB]4 E2 | (c3 B) (EF) | (A3 B) [E^G]2 | [EA]4 [EG]2 | %12
 (G3 A) [FG]2 | (G3 A) [EG]2 | (G3 A) [FG]2 | [EG]4 [EG]2 | [CG]3 [EA] [FG]2 | (E2 z) d [Gc]2 | %18
 GF z B [^FA]2 | [Gd]4 G2 | ([Ge]3 [Fd]) [Ec]2 | [Ec]3 [Fd] [DB]2 | [Ec]4 |] %23
V:2
 x2 | E4 c2 | E4 x2 | E4 x2 | x6 | F4 x2 | E4 x2 | E4 x2 | x4 E2 | E4 A2 | E4 x2 | x6 | F4 x2 | %13
 E4 x2 | F4 x2 | x6 | x6 | e3 F2 x | c3 E2 x | x4 G2 | x6 | x6 | x4 |] %23
V:3
 [C,C]2 | C2 G,2 (E,F,) | [C,G,]4 (A,B,) | (C,2 E,2) [G,B,]2 | [C,C]4 [C,C]2 | %5
 (C3 D) ([E,C][D,B,]) | [C,C]4 [E,C]2 | A,4 A,2 | [E,^G,]4 [E,G,]2 | %9
 [A,,A,]3 [B,,^G,] ([C,A,][D,B,]) | (C3 D) [E,B,]2 | [A,,C]4 [C,C]2 | [D,B,]4 [D,B,]2 | %13
 [C,C]4 [C,C]2 | [B,,D]4 [G,,B,]2 | [C,C]4 [C,C]2 | (E,2 C,2) [B,,D]2 | ([C,C]2 [D,B,]2) [E,C]2 | %18
 [A,C]4 [A,C]2 | [G,B,]4 [G,B,]2 | ([C,C]3 [D,B,]) (E,F,) | G,4 [G,,G,]2 | [C,G,]4 |] %23
V:4
 x2 | C,4 C,2 | x4 C,2 | C4 x2 | x6 | F,4 x2 | x6 | A,4 A,2 | x6 | x6 | E,4 x2 | x6 | x6 | x6 | %14
 x6 | x6 | C4 x2 | x6 | x6 | x6 | x4 C2 | G,4 x2 | x4 |] %23

